X: 222
T: You huayuan
%%abc-version 2.0
%%abcx-abcm2ps-target-version 5.9.1 (29 Sep 2008)
%%abc-creator hum2abc beta
%%abcx-conversion-date 2013/10/02 07:52:29
%%abc-edited-by Helmut Schaffrath
%%humdrum-veritas 3293592998
%%humdrum-veritas-data 657923180
%%continueall 1
%%barnumbers 0
L: 1/8
M: 2/4
K: G
d e d B [I:setbarnb 1]| 
d ed2 | 
e d c B | 
d d/ d/ B d- | 
d e d e | 
d d B A | 
G B B E | 
D4 | 
d d B A | 
B ED2 | 
d d B B/ A/ | 
A ED2 | 
A A E G | 
A Bd2 | 
g> g d d | 
B B/ A/ E G | 
A A/ E/D2- | 
D2z2 |]  



